storage/app/icons/phosphoricons/light/desktop-light.svg

<svg xmlns="http://www.w3.org/2000/svg" fill="currentColor" viewBox="0 0 256 256"><path d="M208 42H48a22 22 0 0 0-22 22v112a22 22 0 0 0 22 22h74v20H96a6 6 0 0 0 0 12h64a6 6 0 0 0 0-12h-26v-20h74a22 22 0 0 0 22-22V64a22 22 0 0 0-22-22M48 54h160a10 10 0 0 1 10 10v82H38V64a10 10 0 0 1 10-10m160 132H48a10 10 0 0 1-10-10v-18h180v18a10 10 0 0 1-10 10"/></svg>

<svg xmlns="http://www.w3.org/2000/svg" viewBox="0 0 256 256" fill="currentColor"><path d="M208,42H48A22,22,0,0,0,26,64V176a22,22,0,0,0,22,22h74v20H96a6,6,0,0,0,0,12h64a6,6,0,0,0,0-12H134V198h74a22,22,0,0,0,22-22V64A22,22,0,0,0,208,42ZM48,54H208a10,10,0,0,1,10,10v82H38V64A10,10,0,0,1,48,54ZM208,186H48a10,10,0,0,1-10-10V158H218v18A10,10,0,0,1,208,186Z"/></svg>
